!!!!SEGMENT: pl-wnifc--13846--118_anonim--piesni-polskie-i-ruskie-ludu-galicyjskiego-118-koly-lubysz.krn
!!!kernsource:
!!!cenid: 18xx:3340
!!!COM: Anonim
!!!COM-rismid: pe30004985
!!!CDT:
!!!CNT:
!!!GTL: Pieśni polskie i ruskie ludu galicyjskiego
!!!OTL: 118. Koły lubysz
!!!PDT: 1833
!!!AGN:
!!!SMS-siglum: PL-Wnifc
!!!SMS-shelfmark: 13846
!!!SMS-shelfwork: 118 G
!!!NIFC-rismid: 1001039617
!!!URL-scan: http://repozytorium.nifc.pl/skany/pl-wnifc-nut--13846
!!!ONB-nifc:
!!!OMD: Allegro
!!!key: b
**kern	**kern	**dynam	**kern	**text
*part2	*part2	*part2	*part1	*part1
*staff3	*staff2	*	*staff1	*staff1
*>[A,B,B]	*>[A,B,B]	*>[A,B,B]	*>[A,B,B]	*>[A,B,B]
*>A	*>A	*>A	*>A	*>A
*I"FORTEPIAN.	*I"FORTEPIAN.	*	*I"GŁOS.	*
*Ipiano	*Ipiano	*	*Ivox	*
*ICklav	*ICklav	*	*ICvox	*
*IGacmp	*IGacmp	*	*IGsolo	*
*clefF4	*clefG2	*	*clefG2	*
*k[f#c#]	*k[f#c#]	*	*k[f#c#]	*
*b:	*b:	*	*b:	*
*M2/4	*M2/4	*	*M2/4	*
=1	=1	=1	=1	=1
!	!LO:TX:a:t=E.180.:rj	!	!	!
8BB\|L	8.dd\|L	.	8.dd\	Ko-
8B\J 8F#\ 8D\|	.	.	.	.
.	16ff#\|Jk	.	16ff#\	-ły
8BB\|L	(>16ee\LL	.	(>16ee\LL	lu-
.	16dd\)	.	16dd\JJ)	.
8B\J 8F#\ 8D\|	(>16cc#\	.	(>16cc#\LL	-bysz,
.	16b\JJ)	.	16b\JJ)	.
=2	=2	=2	=2	=2
*^	*	*	*	*
.	.	8qb/	.	8qb/	.
!	!	!	!LO:DY:b=2	!	!
8A#X/	8Gn\ 8E\ 8BB\	8dd\L	f	8dd\	lu-
!	!	!	!LO:DY:b=2	!	!
4A#/	4G\ 4E\ 4BB\	8dd\J	sf	8dd\	-by
.	.	(>16cc#\LL	.	(>16cc#\LL	du-
.	.	16a#X/J)	.	16a#X\JJ)	.
8B/ 8F#/ 8D/	8BB\	8b\|J	.	8b\	-że,
*v	*v	*	*	*	*
!!LO:LB:g=original
=3	=3	=3	=3	=3
8BB\|L	8.dd\L	.	8.dd\	a
8B\J 8F#\ 8D\|	.	.	.	.
.	16ff#\Jk	.	16ff#\	ne
8BB\|L	(>16ee\LL	.	(>16ee\LL	lu-
.	16dd\)	.	16dd\JJ)	.
8B\J 8F#\ 8D\|	(>16cc#\	.	(>16cc#\LL	-bysz,
.	16b\JJ)	.	16b\JJ)	.
=4	=4	=4	=4	=4
*^	*	*	*	*
!	!	!	!LO:DY:b=2	!	!
8A#X/	8Gn\ 8E\ 8BB\	8dd\L	f	8dd\	ne
!	!	!	!LO:DY:b=2	!	!
4A#/	4G\ 4E\ 4BB\	8dd\J	sf	8dd\	żar-
.	.	(>16cc#\LL	.	(>16cc#\LL	-tuj-
.	.	16a#X\J)	.	16a#X\JJ)	.
8B/ 8F#/ 8D/ 8BB/	8BB\	8b\J	.	8b\	-że
*v	*v	*	*	*	*
!!LO:LB:g=original
=5!|:	=5!|:	=5!|:	=5!|:	=5!|:
*>B	*>B	*>B	*>B	*>B
!LO:TX:t=P:problem=mixed beam	!	!	!	!
8FF#/L	8.a#X/L	.	8.a#X/	ne
8F#\J	.	.	.	.
.	16f#/Jk	.	16f#/	za-
8d\L 8B\	(>16dd\LL	.	(>16dd\LL	-da-
.	16cc#\J)	.	16cc#\JJ)	.
8F#\J	8b\J	.	8b\	-waj
=6	=6	=6	=6	=6
8c#\L 8A#X\	8cc#\L 8f#\	.	8cc#\	ser-
8F#\	8ff#\J 8f#\	.	8ff#\	-ciu
8d\ 8B\	(>16dd\LL [<16f#\	.	(>16dd\LL	tu-
.	16cc#\J 16f#\])	.	16cc#\JJ)	.
8F#\J	8b\J 8f#\	.	8b\	-hy,
!!LO:LB:g=original
=7	=7	=7	=7	=7
!LO:TX:t=P:problem=mixed beam	!	!	!	!
8FF#/L	8.a#X/L	.	8.a#X/	ne
8F#\J	.	.	.	.
.	16f#/Jk	.	16f#/	woź-
8d\L 8B\	(>16dd\LL	.	(>16dd\LL	-mesz
.	16cc#\J)	.	16cc#\JJ)	.
8F#\J	8b\J	.	8b\	ty
=8	=8	=8	=8	=8
8e\L 8c#\	(<16a#X/LL	.	(<16a#X/LL	woź-
.	16f#/JJ)	.	16f#/JJ)	.
8F#\J	(<8a#/	.	8a#/	-me
!LO:TX:t=P:problem=mixed beam	!	!	!	!
8d\L 8B\	8b/L)	.	8b/	dru-
8BB/J	8b/J	.	8b/	-hy!
=:|!	=:|!	=:|!	=:|!	=:|!
*-	*-	*-	*-	*-
!!!system-decoration: <s1>{(s2,s3)}
!!!RDF**kern: > = above
!!!RDF**kern: < = below
!!!RDF**kern: | = vertical stroke
!!!AIN: 1 piano 1 vox
!!!ENC: Andrzej Kubiczek
!!!END: 2021-11-11
